X:49
T: Der eifersuechtige Knabe
N: D0052
O: Europa, Mitteleuropa, Lothringen, Settingen
R: Ballade, Liebe, Mord aus Eifersucht
M: 3/4
L: 1/8
K: G
D2 | D2G2G2 | G2A2B2 | B3AB2 | A4
A2 | A2B2c2 | c2d2e2 | e4d2 | B4
d2c2 | B3cB2 | A2G2d2 | d6- | d4
e2 | d3cB2 | A2d2c2 | B6- | B4

@@@ Tune index: 2571
